shader_type canvas_item;
uniform sampler2D screen_texture : hint_screen_texture, repeat_disable, filter_nearest;
void fragment() {
	// Place fragment code here.
	vec4 screen = textureLod(screen_texture, SCREEN_UV, 1.0);
	COLOR = vec4(1.0 - screen.x, 1.0 - screen.y, 1.0 - screen.z, 1.0);
	
}
